layouts/icon-pack/torch.svg

<?xml version="1.0" encoding="UTF-8"?>
<svg width="1200pt" height="1200pt" version="1.1" viewBox="0 0 1200 1200" xmlns="http://www.w3.org/2000/svg">
 <g fill="#fff">
  <path d="m774.98 754.97c-3.0469-0.86719-6.0703-1.7578-9.0938-2.7188-8.5078-2.3438-48.984-14.953-94.453-46.875-5.5898-3.9258-12.34-5.8594-19.16-5.4922-6.8242 0.37109-13.324 3.0234-18.457 7.5312-35.156 30.68-82.172 64.289-135.94 82.922l20.578-88.055c0.89062-3.8125 0.3125-7.8242-1.6094-11.234-1.9258-3.4102-5.0625-5.9727-8.7891-7.1836-3.7227-1.2109-7.7656-0.97656-11.328 0.65234l-63.281 28.922c-20.609 9.4297-36.664 26.609-44.672 47.812-18.469 49.078-76.453 148.76-256.8 246.21-30.656 16.547-53.695 44.34-64.266 77.531-2.3438 7.5938-4.6875 15.938-6.9141 25.031-3.7031 15.68 5.9766 31.383 21.938 33.727 6.2969 0.89453 12.703-0.51172 18.047-3.9609 41.18-26.156 268.71-169.22 403.36-221.11 97.125-37.5 200.16-80.156 275.86-131.25 3.832-2.5781 6.5391-6.5195 7.5664-11.023 1.0234-4.5039 0.29297-9.2266-2.043-13.211-2.3359-3.9844-6.1055-6.9258-10.539-8.2266z"/>
  <path d="m1084.4 192.19c-15.727 4.1484-24.633 22.102-19.898 40.102s21.352 29.273 37.078 25.125c15.727-4.1484 24.633-22.102 19.898-40.125-4.7344-18.023-21.352-29.32-37.078-25.102z"/>
  <path d="m1098.8 362.44c-9.7969 16.406-23.133 18.047-34.219 15.422-14.078-3.6562-25.535-13.863-30.797-27.422-9.0234-21.938-12.609-52.43-14.062-70.477-1.2461-18.008-4.0938-35.867-8.5078-53.367-26.156-100.78-89.25-147.21-132.52-167.79-8.875-4.2383-19.332-3.4375-27.461 2.0977-8.1289 5.5352-12.699 14.977-12.008 24.785 8.3672 115.95-31.055 150.42-54.305 160.64-10.348 4.6719-22.191 4.75-32.602 0.21094-20.414-9.1875-24.539-31.289-23.883-50.086 0.10937-4.207-1.3086-8.3164-4-11.555-2.6875-3.2383-6.4648-5.3906-10.621-6.0547-4.1602-0.66406-8.4141 0.20703-11.98 2.4453-107.81 66.492-122.62 220.03-122.62 220.03-12.422 246.42 203.91 304.95 203.91 304.95 203.91 63.82 310.24-97.523 310.24-97.523 68.156-118.64 46.453-204.94 28.289-244.8-1.9883-4.3516-6.2031-7.2578-10.977-7.5703-4.7734-0.3125-9.3359 2.0156-11.875 6.0703zm-125.91 163.17c-9.375 52.172-38.156 75.703-65.859 90.938-28.812 16.18-63.277 18.887-94.266 7.4062-30.188-11.555-49.594-33.703-61.898-55.031-19.609-34.375-25.406-74.922-16.219-113.41 7.1562-31.641 25.082-59.809 50.719-79.688 4.9336-3.7461 11.102-5.4922 17.266-4.8906 6.168 0.60547 11.879 3.5156 15.992 8.1484 3.957 4.6719 8.5391 8.7695 13.617 12.188 6.5234 4.3789 14.492 6.0391 22.223 4.6367 7.7266-1.4062 14.605-5.7695 19.168-12.16 8.2578-11.438 14.688-24.086 19.055-37.5 1.1289-3.4727 3.4727-6.4219 6.5977-8.3125 3.125-1.8906 6.8242-2.5898 10.426-1.9766 3.5977 0.61328 6.8555 2.5039 9.1797 5.3203 29.93 36.188 44.742 82.453 51.68 112.36 5.6602 23.586 6.4492 48.078 2.3203 71.977z"/>
 </g>
</svg>

<?xml version="1.0" encoding="UTF-8" standalone="no"?>
<!DOCTYPE svg PUBLIC "-//W3C//DTD SVG 1.1//EN" "http://www.w3.org/Graphics/SVG/1.1/DTD/svg11.dtd">
<svg width="100%" height="100%" viewBox="0 0 509 512" version="1.1" xmlns="http://www.w3.org/2000/svg" xmlns:xlink="http://www.w3.org/1999/xlink" xml:space="preserve" xmlns:serif="http://www.serif.com/" style="fill-rule:evenodd;clip-rule:evenodd;stroke-linejoin:round;stroke-miterlimit:2;">
    <g transform="matrix(1,0,0,1,-60.0062,-56.1093)">
        <g transform="matrix(0.47063,0,0,0.47063,31.7655,29.7026)">
            <path d="M774.98,754.97C771.933,754.103 768.91,753.212 765.886,752.251C757.378,749.907 716.902,737.298 671.433,705.376C665.843,701.45 659.093,699.517 652.273,699.884C645.449,700.255 638.949,702.907 633.816,707.415C598.66,738.095 551.644,771.704 497.876,790.337L518.454,702.282C519.345,698.47 518.767,694.458 516.845,691.048C514.919,687.638 511.782,685.076 508.056,683.865C504.333,682.654 500.29,682.888 496.728,684.517L433.447,713.439C412.838,722.869 396.783,740.048 388.775,761.251C370.306,810.329 312.322,910.011 131.975,1007.46C101.319,1024.01 78.28,1051.8 67.709,1084.99C65.365,1092.59 63.021,1100.93 60.795,1110.02C57.092,1125.7 66.771,1141.41 82.733,1143.75C89.03,1144.64 95.436,1143.24 100.78,1139.79C141.96,1113.63 369.49,970.569 504.14,918.679C601.265,881.179 704.3,838.523 780,787.429C783.832,784.851 786.539,780.91 787.566,776.406C788.589,771.902 787.859,767.179 785.523,763.195C783.187,759.211 779.418,756.269 774.984,754.968L774.98,754.97Z" style="fill:white;fill-rule:nonzero;"/>
            <path d="M1084.4,192.19C1068.67,196.338 1059.77,214.292 1064.5,232.292C1069.24,250.292 1085.85,261.565 1101.58,257.417C1117.31,253.269 1126.21,235.315 1121.48,217.292C1116.74,199.269 1100.13,187.972 1084.4,192.19Z" style="fill:white;fill-rule:nonzero;"/>
            <path d="M1098.8,362.44C1089,378.846 1075.67,380.487 1064.58,377.862C1050.5,374.206 1039.05,363.999 1033.78,350.44C1024.76,328.502 1021.18,298.01 1019.72,279.963C1018.48,261.955 1015.63,244.096 1011.21,226.596C985.058,125.816 921.964,79.386 878.694,58.806C869.819,54.568 859.362,55.368 851.233,60.904C843.104,66.439 838.534,75.881 839.225,85.689C847.592,201.639 808.17,236.109 784.92,246.329C774.572,251.001 762.729,251.079 752.318,246.54C731.904,237.352 727.779,215.251 728.435,196.454C728.545,192.247 727.127,188.137 724.435,184.899C721.748,181.66 717.97,179.508 713.814,178.844C709.654,178.18 705.4,179.051 701.834,181.289C594.024,247.781 579.214,401.319 579.214,401.319C566.792,647.739 783.124,706.269 783.124,706.269C987.034,770.089 1093.36,608.746 1093.36,608.746C1161.52,490.106 1139.82,403.806 1121.65,363.946C1119.66,359.595 1115.45,356.688 1110.68,356.376C1105.9,356.063 1101.34,358.392 1098.8,362.446L1098.8,362.44ZM972.89,525.61C963.515,577.782 934.734,601.313 907.031,616.548C878.219,632.728 843.754,635.435 812.765,623.954C782.577,612.399 763.171,590.251 750.867,568.923C731.258,534.548 725.461,494.001 734.648,455.513C741.804,423.872 759.73,395.704 785.367,375.825C790.301,372.079 796.469,370.333 802.633,370.935C808.801,371.54 814.512,374.45 818.625,379.083C822.582,383.755 827.164,387.853 832.242,391.271C838.765,395.65 846.734,397.31 854.465,395.908C862.192,394.502 869.07,390.138 873.633,383.748C881.891,372.31 888.321,359.662 892.688,346.248C893.817,342.775 896.161,339.826 899.286,337.935C902.411,336.045 906.11,335.345 909.712,335.959C913.309,336.572 916.567,338.463 918.891,341.279C948.821,377.467 963.633,423.732 970.571,453.639C976.232,477.225 977.021,501.717 972.892,525.616L972.89,525.61Z" style="fill:white;fill-rule:nonzero;"/>
        </g>
    </g>
</svg>
